X: 174
T: Storjohannesleken
O: Röros, Norge
D: Perjos Lars & Mattias Helje
Z:Transcribed to abcby Jon Magnusson 080429
N: Det finns fler låtar från [[!Norge]]
R: Rörospols
M: 3/4
L: 1/8
K: Gm
(3 A=B^c d2 d>=c|(3 ABG A>^F D2|(3 D=E^F G>A cA|B2 A4|
(3 A=B^c d2 d>=c|(3 ABG A>^F D2|(3 D=E^F G>A cA|BA G3=e:|:
f>g f/2=e/2f/2e/2 d>e|d/2c/2=B/2c/2 d3A|(3:1:2 B2B- (3 BAB c>A|B2 A3=e|
f>g f/2=e/2f/2e/2 d>e|d/2c/2=B/2c/2 d3A|(3:1:2 B2G- (3 GAB c>A|BA G4:|
(:musicend:)

(:music:)
